app/img/top_row/ic_fire.svg

<svg width="23" height="28" viewBox="0 0 23 28" fill="none" xmlns="http://www.w3.org/2000/svg">
    <path d="M23 19.1094C23 21.6647 20.7095 25.4966 16.5891 27.206C16.2481 27.3473 15.9088 26.9849 16.1295 26.714C17.0362 25.5989 17.4745 24.1625 17.4745 22.892C17.4745 20.4798 16.0639 19.4487 16.0639 19.4487C15.6942 20.4873 15.1353 21.3539 14.4044 22.0598C13.6994 22.7396 12.4565 22.0103 12.8266 21.1589C14.4561 17.4144 14.5291 16.086 11.5106 14.4672C12.7705 18.7353 6.85394 19.2465 6.85394 24.0674C6.85394 24.8018 7.15436 25.8008 7.77075 26.6738C7.97452 26.9618 7.61091 27.2993 7.2723 27.1397C2.97346 25.1168 0 20.532 0 16.7919C0 12.1275 5.11697 8.22301 5.29303 8.09281C5.29742 8.08891 5.29742 8.08891 5.29742 8.08891C5.48599 9.9075 6.36326 11.2704 7.67005 12.3522C7.94783 12.582 8.38004 12.3087 8.21243 12.0063C7.57002 10.8462 6.89652 9.0177 7.23209 6.77971C7.23648 6.76411 7.23648 6.74521 7.24087 6.72991C7.58083 4.05482 9.64898 1.99743 12.93 0.23764C10.4533 8.6277 23 9.6357 23 19.1094Z"
          fill="#7CEA57"/>
</svg>

<svg width="23" height="28" fill="none" xmlns="http://www.w3.org/2000/svg"><path d="M23 19.11c0 2.555-2.29 6.387-6.41 8.096-.342.141-.681-.221-.46-.492.906-1.115 1.345-2.551 1.345-3.822 0-2.412-1.411-3.443-1.411-3.443a6.69 6.69 0 0 1-1.66 2.61c-.705.68-1.947-.049-1.577-.9 1.63-3.745 1.702-5.073-1.316-6.692 1.26 4.268-4.657 4.78-4.657 9.6 0 .735.3 1.734.917 2.607.204.288-.16.625-.499.466C2.973 25.117 0 20.532 0 16.792c0-4.665 5.117-8.569 5.293-8.7l.004-.003c.189 1.819 1.066 3.181 2.373 4.263.278.23.71-.043.542-.346-.642-1.16-1.315-2.988-.98-5.226.004-.016.004-.035.009-.05.34-2.675 2.408-4.733 5.689-6.492C10.453 8.628 23 9.636 23 19.109Z" fill="#7CEA57"/></svg>
